dist/assets/img/main/trust/dusha.svg

<svg width="1003" height="110" viewBox="0 0 1003 110" fill="none" xmlns="http://www.w3.org/2000/svg">
<path d="M64.944 79.2V25.824H44.336L44.08 32.224C43.9093 36.9173 43.6107 41.312 43.184 45.408C42.7573 49.504 42.16 53.2587 41.392 56.672C40.7093 60.0853 39.8133 63.1147 38.704 65.76C37.5947 68.32 36.2293 70.4533 34.608 72.16L2.736 68.576C5.552 68.576 7.856 67.6373 9.648 65.76C11.5253 63.7973 13.0187 61.1093 14.128 57.696C15.2373 54.1973 16.048 50.1013 16.56 45.408C17.1573 40.6293 17.584 35.3813 17.84 29.664L18.864 2.39999H94.64V79.2H64.944ZM0.176 109.536V68.576H106.416V109.536H78.768V92H27.824V109.536H0.176ZM123.729 68.576C129.02 69.9413 133.158 70.4107 136.145 69.984C139.132 69.472 141.777 67.6373 144.081 64.48L148.433 58.336L150.993 55.52L176.977 2.39999H206.161L170.193 69.856C166.268 77.1947 161.532 82.912 155.985 87.008C150.524 91.0187 144.465 93.3227 137.809 93.92C131.153 94.5173 124.113 93.3227 116.689 90.336L123.729 68.576ZM150.609 79.2L108.881 2.39999H140.753L166.993 58.336L150.609 79.2ZM266.708 68.576L260.18 75.104V2.39999H289.876V75.104L283.22 68.576H314.452L307.796 75.104V2.39999H337.492V92H212.436V2.39999H242.132V75.104L235.604 68.576H266.708ZM345.759 92L384.927 2.39999H414.623L453.791 92H422.559L393.631 16.736H405.407L376.479 92H345.759ZM369.055 76.384L376.735 54.624H417.951L425.631 76.384H369.055ZM559.444 79.2V25.824H538.836L538.58 32.224C538.409 36.9173 538.111 41.312 537.684 45.408C537.257 49.504 536.66 53.2587 535.892 56.672C535.209 60.0853 534.313 63.1147 533.204 65.76C532.095 68.32 530.729 70.4533 529.108 72.16L497.236 68.576C500.052 68.576 502.356 67.6373 504.148 65.76C506.025 63.7973 507.519 61.1093 508.628 57.696C509.737 54.1973 510.548 50.1013 511.06 45.408C511.657 40.6293 512.084 35.3813 512.34 29.664L513.364 2.39999H589.14V79.2H559.444ZM494.676 109.536V68.576H600.916V109.536H573.268V92H522.324V109.536H494.676ZM656.629 94.048C649.376 94.048 642.634 92.896 636.405 90.592C630.261 88.288 624.928 85.0453 620.405 80.864C615.882 76.5973 612.341 71.6053 609.781 65.888C607.306 60.1707 606.069 53.9413 606.069 47.2C606.069 40.3733 607.306 34.144 609.781 28.512C612.341 22.7947 615.882 17.8453 620.405 13.664C624.928 9.39733 630.261 6.11199 636.405 3.808C642.634 1.504 649.376 0.351997 656.629 0.351997C663.968 0.351997 670.709 1.504 676.853 3.808C682.997 6.11199 688.33 9.39733 692.853 13.664C697.376 17.8453 700.874 22.7947 703.349 28.512C705.909 34.144 707.189 40.3733 707.189 47.2C707.189 53.9413 705.909 60.1707 703.349 65.888C700.874 71.6053 697.376 76.5973 692.853 80.864C688.33 85.0453 682.997 88.288 676.853 90.592C670.709 92.896 663.968 94.048 656.629 94.048ZM656.629 69.6C659.445 69.6 662.048 69.088 664.437 68.064C666.912 67.04 669.045 65.5893 670.837 63.712C672.714 61.7493 674.165 59.4027 675.189 56.672C676.213 53.856 676.725 50.6987 676.725 47.2C676.725 43.7013 676.213 40.5867 675.189 37.856C674.165 35.04 672.714 32.6933 670.837 30.816C669.045 28.8533 666.912 27.36 664.437 26.336C662.048 25.312 659.445 24.8 656.629 24.8C653.813 24.8 651.168 25.312 648.693 26.336C646.304 27.36 644.17 28.8533 642.293 30.816C640.501 32.6933 639.093 35.04 638.069 37.856C637.045 40.5867 636.533 43.7013 636.533 47.2C636.533 50.6987 637.045 53.856 638.069 56.672C639.093 59.4027 640.501 61.7493 642.293 63.712C644.17 65.5893 646.304 67.04 648.693 68.064C651.168 69.088 653.813 69.6 656.629 69.6ZM718.061 92V2.39999H795.757V25.184H747.757V35.552H769.133C780.056 35.552 788.418 37.8987 794.221 42.592C800.109 47.2 803.053 53.8987 803.053 62.688C803.053 71.8187 799.725 78.9867 793.069 84.192C786.413 89.3973 777.154 92 765.293 92H718.061ZM747.757 70.88H763.245C766.232 70.88 768.536 70.24 770.157 68.96C771.864 67.68 772.717 65.8453 772.717 63.456C772.717 58.848 769.56 56.544 763.245 56.544H747.757V70.88ZM813.436 92V2.39999H856.572C864.935 2.39999 872.145 3.76533 878.204 6.49599C884.348 9.22666 889.084 13.152 892.412 18.272C895.74 23.3067 897.404 29.28 897.404 36.192C897.404 43.104 895.74 49.0773 892.412 54.112C889.084 59.1467 884.348 63.072 878.204 65.888C872.145 68.6187 864.935 69.984 856.572 69.984H830.204L843.644 57.056V92H813.436ZM843.644 60.384L830.204 46.688H854.652C858.833 46.688 861.905 45.7493 863.868 43.872C865.916 41.9947 866.94 39.4347 866.94 36.192C866.94 32.9493 865.916 30.3893 863.868 28.512C861.905 26.6347 858.833 25.696 854.652 25.696H830.204L843.644 12V60.384ZM894.509 92L933.677 2.39999H963.373L1002.54 92H971.309L942.381 16.736H954.157L925.229 92H894.509ZM917.805 76.384L925.485 54.624H966.701L974.381 76.384H917.805Z" fill="#101010"/>
</svg>

<svg width="1003" height="110" fill="none" xmlns="http://www.w3.org/2000/svg"><path d="M64.944 79.2V25.824H44.336l-.256 6.4c-.17 4.693-.47 9.088-.896 13.184-.427 4.096-1.024 7.85-1.792 11.264-.683 3.413-1.579 6.443-2.688 9.088-1.11 2.56-2.475 4.693-4.096 6.4L2.736 68.576c2.816 0 5.12-.939 6.912-2.816 1.877-1.963 3.37-4.65 4.48-8.064 1.11-3.499 1.92-7.595 2.432-12.288.597-4.779 1.024-10.027 1.28-15.744L18.864 2.4H94.64v76.8H64.944zM.176 109.536v-40.96h106.24v40.96H78.768V92H27.824v17.536H.176zm123.553-40.96c5.291 1.365 9.429 1.835 12.416 1.408 2.987-.512 5.632-2.347 7.936-5.504l4.352-6.144 2.56-2.816L176.977 2.4h29.184l-35.968 67.456c-3.925 7.339-8.661 13.056-14.208 17.152-5.461 4.01-11.52 6.315-18.176 6.912-6.656.597-13.696-.597-21.12-3.584l7.04-21.76zm26.88 10.624L108.881 2.4h31.872l26.24 55.936L150.609 79.2zm116.099-10.624l-6.528 6.528V2.4h29.696v72.704l-6.656-6.528h31.232l-6.656 6.528V2.4h29.696V92H212.436V2.4h29.696v72.704l-6.528-6.528h31.104zM345.759 92l39.168-89.6h29.696L453.791 92h-31.232l-28.928-75.264h11.776L376.479 92h-30.72zm23.296-15.616l7.68-21.76h41.216l7.68 21.76h-56.576zM559.444 79.2V25.824h-20.608l-.256 6.4c-.171 4.693-.469 9.088-.896 13.184-.427 4.096-1.024 7.85-1.792 11.264-.683 3.413-1.579 6.443-2.688 9.088-1.109 2.56-2.475 4.693-4.096 6.4l-31.872-3.584c2.816 0 5.12-.939 6.912-2.816 1.877-1.963 3.371-4.65 4.48-8.064 1.109-3.499 1.92-7.595 2.432-12.288.597-4.779 1.024-10.027 1.28-15.744L513.364 2.4h75.776v76.8h-29.696zm-64.768 30.336v-40.96h106.24v40.96h-27.648V92h-50.944v17.536h-27.648zm161.953-15.488c-7.253 0-13.995-1.152-20.224-3.456-6.144-2.304-11.477-5.547-16-9.728-4.523-4.267-8.064-9.259-10.624-14.976-2.475-5.717-3.712-11.947-3.712-18.688 0-6.827 1.237-13.056 3.712-18.688 2.56-5.717 6.101-10.667 10.624-14.848 4.523-4.267 9.856-7.552 16-9.856 6.229-2.304 12.971-3.456 20.224-3.456 7.339 0 14.08 1.152 20.224 3.456 6.144 2.304 11.477 5.59 16 9.856 4.523 4.181 8.021 9.13 10.496 14.848 2.56 5.632 3.84 11.861 3.84 18.688 0 6.741-1.28 12.97-3.84 18.688a44.892 44.892 0 01-10.496 14.976c-4.523 4.181-9.856 7.424-16 9.728-6.144 2.304-12.885 3.456-20.224 3.456zm0-24.448c2.816 0 5.419-.512 7.808-1.536 2.475-1.024 4.608-2.475 6.4-4.352 1.877-1.963 3.328-4.31 4.352-7.04 1.024-2.816 1.536-5.973 1.536-9.472 0-3.499-.512-6.613-1.536-9.344-1.024-2.816-2.475-5.163-4.352-7.04a17.745 17.745 0 00-6.4-4.48c-2.389-1.024-4.992-1.536-7.808-1.536s-5.461.512-7.936 1.536c-2.389 1.024-4.523 2.517-6.4 4.48-1.792 1.877-3.2 4.224-4.224 7.04-1.024 2.73-1.536 5.845-1.536 9.344 0 3.499.512 6.656 1.536 9.472 1.024 2.73 2.432 5.077 4.224 7.04a20.283 20.283 0 006.4 4.352c2.475 1.024 5.12 1.536 7.936 1.536zM718.061 92V2.4h77.696v22.784h-48v10.368h21.376c10.923 0 19.285 2.347 25.088 7.04 5.888 4.608 8.832 11.307 8.832 20.096 0 9.13-3.328 16.299-9.984 21.504C786.413 89.397 777.154 92 765.293 92h-47.232zm29.696-21.12h15.488c2.987 0 5.291-.64 6.912-1.92 1.707-1.28 2.56-3.115 2.56-5.504 0-4.608-3.157-6.912-9.472-6.912h-15.488V70.88zM813.436 92V2.4h43.136c8.363 0 15.573 1.365 21.632 4.096 6.144 2.73 10.88 6.656 14.208 11.776 3.328 5.035 4.992 11.008 4.992 17.92 0 6.912-1.664 12.885-4.992 17.92-3.328 5.035-8.064 8.96-14.208 11.776-6.059 2.73-13.269 4.096-21.632 4.096h-26.368l13.44-12.928V92h-30.208zm30.208-31.616l-13.44-13.696h24.448c4.181 0 7.253-.939 9.216-2.816 2.048-1.877 3.072-4.437 3.072-7.68 0-3.243-1.024-5.803-3.072-7.68-1.963-1.877-5.035-2.816-9.216-2.816h-24.448L843.644 12v48.384zM894.509 92l39.168-89.6h29.696L1002.54 92h-31.231l-28.928-75.264h11.776L925.229 92h-30.72zm23.296-15.616l7.68-21.76h41.216l7.68 21.76h-56.576z" fill="#101010"/></svg>
